X:405061
%%pagescale .95
T:Acadian Reel
S:The melody is transcribed from the fiddling of Doug Protsik, recorded at Maine
S:Fiddle Camp, Aug.7, 2009. I also include a more basic version of the melody elsewhere.
H:All eigth note rests apply to all players.
N:From the Lamprey River Band Tunebook, on NH Country Dance (URL below), along with many New England,
N:Canadian & Swedish tunes, and resources for abc notation and New England traditional music and dance.
%
N: Note #1: To preserve formatting (font, spacing, etc.), use the
N: file header at the URL below; just follow accompanying instructions.
%
N: Note #2: This abc code is optimized for use with abcm2ps, which is used by
N: EasyABC and other abc apps. To use abc2svg for display or printing look to see if there
N: is a file optimized for abc2svg. If not you may need to adjust the spacing in places.
%
Z:abc-transcription Peter Yarensky. I rely heavily on careful listening to the
Z:named sources aided by software to hear details. While not perfect, known
Z:substantial differences from other written sources receive careful attention.
Z:abc-copyright Peter Yarensky. You may reproduce this tune freely but
Z:please include the entire abc file including all the notes.
%%writefields HQSD
F:Tunes Home Page - https://fiddle-tunes.nhcountrydance.com/
F:abc Header & its Usage - https://fiddle-tunes.nhcountrydance.com/header-page/
M:2/4
L:1/8
R:Reel
G:Reels ~ Canadian ~ Quebec ~ LRB
N: Tune Tags ~ Reel, Canadian, Quebec, LRB
K:D
%%text $2As played by Doug Protsik$0
%%
A>B |\
"D" AG FA | "D"  d>e dd/e/ | "D" ((3f/g/f/)e dc | "D" dd/d/ df/g/ |\
"D" ag ((3f/g/f/)d | "A"  ee/f/ e((3e/f/g/) | "A" ag ((3f/g/f/)e | "D" fz A>B |
"D" AG FA | "D"  d>e dd/e/   | "D" ((3f/g/f/)e dc | "D" dd/d/ df/g/ |\
"D" ag ((3f/g/f/)d | "A"  ee/f/ e((3e/f/g/) | "A" ag ((3f/g/f/)e | "D" dz   ||
gf |\
"G" e>B  BB  | "G" [eB]e ((3f/g/f/)e | "D"  dB/2d/2 AA | "D"  Af gf |\
"G" e>B  BB  | "G" [eB]e ((3f/g/f/)e | "D"  dA/2B/2 AA | "D"  Ad ed |
"A"  ca   Bc | "D"  dz gf |\
"G" e>B  BB  | "G" [eB]e ((3f/g/f/)e | "D"  dB/2d/2 AA | "D"  Ad ed |\
"A"  ca   Bc | "D"  dz   |]
%%vskip 25

